assets/imessage/original.svg

<svg viewBox="0 0 24 24" xmlns="http://www.w3.org/2000/svg" fill="#34DA50"><path d="m5.285 0a5.273 5.273 0 0 0 -5.285 5.285v13.43a5.273 5.273 0 0 0 5.285 5.285h13.43a5.273 5.273 0 0 0 5.285-5.285v-13.43a5.273 5.273 0 0 0 -5.285-5.285zm6.715 4.154a8.809 7.337 0 0 1 8.809 7.338 8.809 7.337 0 0 1 -8.809 7.336 8.809 7.337 0 0 1 -2.492-.303 8.656 7.337 0 0 1 -3.578 1.405 9.929 7.337 0 0 0 1.54-2.155 8.809 7.337 0 0 1 -4.279-6.283 8.809 7.337 0 0 1 8.809-7.338"/></svg>

<svg xmlns="http://www.w3.org/2000/svg" fill="#34da50" viewBox="0 0 24 24"><path d="M5.285 0A5.273 5.273 0 0 0 0 5.285v13.43A5.273 5.273 0 0 0 5.285 24h13.43A5.273 5.273 0 0 0 24 18.715V5.285A5.273 5.273 0 0 0 18.715 0zM12 4.154a8.809 7.337 0 0 1 8.809 7.338A8.809 7.337 0 0 1 12 18.828a8.809 7.337 0 0 1-2.492-.303A8.656 7.337 0 0 1 5.93 19.93a9.929 7.337 0 0 0 1.54-2.155 8.809 7.337 0 0 1-4.279-6.283A8.809 7.337 0 0 1 12 4.154"/></svg>
